X: 10174
T: Dinny Delaney's
R: reel
M: 4/4
K: Adorian
ABAG EFGE|AGAB cded|cAag efge|1 aged ^cAdc:|2 aged ^cAAg||
egdg egdc|BGGA Bcd=f|~e3=f eaab|aged ^cAAe|
a2eg aged|^cAAG EFGE|AGAB cdef|g2fa ged^c||A4||

